packages/core/src/svgs/tokens/mono/SWTH.svg

<svg width="24" height="24" viewBox="0 0 24 24" fill="none" xmlns="http://www.w3.org/2000/svg">
<path d="M4.49423 13.8754H2.61865C3.61896 15.1257 4.91312 15.6446 5.43202 15.7509L4.49423 13.8754Z" fill="white"/>
<path d="M5.18193 15.8133C6.03844 16.2197 7.05752 16.476 8.24538 16.3761C11.9965 16.0634 14.4973 12.9374 14.4973 11.9997C15.6226 12.1872 18.1548 12.1872 20.1116 10.918C20.0416 9.67411 19.6863 8.46292 19.0737 7.3781C18.461 6.29326 17.607 5.36381 16.5778 4.66158C15.5488 3.95933 14.3718 3.50309 13.1383 3.32811C11.9047 3.15313 10.6476 3.2641 9.46361 3.65243C8.27982 4.04076 7.20109 4.69608 6.31086 5.56771C5.42062 6.43935 4.74269 7.50401 4.32944 8.67938C3.91621 9.85471 3.77874 11.1094 3.92764 12.3465C4.07653 13.5834 4.50782 14.7695 5.18819 15.8133H5.18193Z" fill="white"/>
<path d="M20.0745 10.3428C18.0988 11.1556 15.0603 11.3744 13.5724 11.3744C12.3337 13.5476 10.4627 15.2921 8.20825 16.376H8.25826C12.0094 16.0634 14.5102 12.9374 14.5102 11.9997C15.6355 12.1871 18.1675 12.1871 20.1245 10.918C20.1146 10.7257 20.098 10.5339 20.0745 10.3428Z" fill="white"/>
<path d="M11.7905 20.7525C17.4298 20.7525 22 16.3948 22 11.0244V10.7493C20.1869 12.3436 18.1425 13.2 15.4355 12.9374C15.0165 14.563 13.2473 17.6264 9.50229 17.6264C6.29509 17.6264 3.50046 15.4883 2 13.7815C3.24414 17.814 7.1516 20.7525 11.7843 20.7525H11.7905Z" fill="white"/>
</svg>

<svg xmlns="http://www.w3.org/2000/svg" width="24" height="24" fill="none" viewBox="0 0 24 24">
    <path fill="#fff" d="M4.494 13.875H2.62c1 1.25 2.294 1.77 2.813 1.876z"/>
    <path fill="#fff" d="M5.182 15.813a5.9 5.9 0 0 0 3.063.563c3.752-.313 6.252-3.439 6.252-4.376 1.126.187 3.658.187 5.615-1.082a8.128 8.128 0 1 0-14.924 4.895z"/>
    <path fill="#fff" d="M20.075 10.343c-1.976.813-5.015 1.031-6.503 1.031a12.3 12.3 0 0 1-5.364 5.002h.05c3.751-.313 6.252-3.439 6.252-4.376 1.126.187 3.658.187 5.615-1.082a8 8 0 0 0-.05-.575"/>
    <path fill="#fff" d="M11.79 20.753c5.64 0 10.21-4.358 10.21-9.729v-.275c-1.813 1.595-3.858 2.451-6.565 2.188-.418 1.626-2.188 4.69-5.933 4.69-3.207 0-6.002-2.139-7.502-3.845 1.244 4.032 5.152 6.97 9.784 6.97z"/>
</svg>
